X:1
T:Believe Ye That I Am Able?
T:Believe Ye That I Am Able?
T:James McGranahan
T:Mary B. Rich Wingate, 1899
T:Public Domain Courtesy of the Cyber Hymnal™
C:James McGranahan
Z:Public Domain
Z:Courtesy of the Cyber Hymnal™
%%score ( 1 2 ) ( 3 4 )
L:1/8
M:3/4
K:F
V:1 treble 
V:2 treble 
V:3 bass 
V:4 bass 
V:1
 C2 | [FA]2 [FA]2 [FA]2 | [FA]2 [Ac]2 [GB]2 | [FA]2 [EG]2 [EG]2 | [EG]4 C2 | [EG]2 [EG]2 [EG]2 | %6
w: 1.~The|blind men to|Je- sus cried|out by the|way, Be-|seech- ing in|
w: 2.~O|Christ- ian, so|wea- ry of|sor- row and|sin, Your|dark- ness will|
w: 3.~Oh|wan- d’rer if|you would a|bless- ing re-|ceive, He’s|pass- ing, oh|
w: 4.~The|same Son of|Da- vid is|heal- ing to-|day, All|those who up-|
 [EG] [EB]3 [EA]2 | [CF]6- | [CF]4 C2 | [FA]2 [FA]2 [FA]2 | [FA]2 [GB]2 [Ac]2 | [Ac]2 [FA]2 [Fc]2 | %12
w: dark- ness for|light;|* “Oh|help, Son of|Da- vid, have|mer- cy, we|
w: van- ish a-|way;|* His|light like the|glo- ry of|noon- tide, shine|
w: do not de-|lay;|* But|an- swer Him|quick- ly, “Yea,|Lord, I be-|
w: on Him call;|Yes,|* Je-|sus of Na-|za- reth is|pass- ing this|
 [FB]4 [FB]2 | [FA]2 [EG]2 F2 | [CG] [CA]3 [CG]2 | [CF]6- | [CF]4 ||"^Refrain" z [Fc] | %18
w: pray, And|grant us the|bless- ing of|sight.”|||
w: in— To|you He is|say- ing to-|day,|||
w: lieve,” To|you He is|say- ing to-|day,|||
w: way, He’s|say- ing to|us, one and|all,|||
 [Fc]2 [FA]>[FB] [Fc]>[Fd] | [Ec]2 [EB]2 z2 | (CE) [EG]2 [GB]2 | [GB]2 [FA]2 z [FA] | %22
w: ||||
w: ||||
w: ||||
w: ||||
 [^FA]2 [FA]2 (3[FA][FA][FA] | !fermata!d4 z2 | [Ec]3 [Ec] [CE]>[CE] | [CF]4 |] %26
w: ||||
w: ||||
w: ||||
w: ||||
V:2
 C2 | x6 | x6 | x6 | x4 C2 | x6 | x6 | x6 | x4 C2 | x6 | x6 | x6 | x6 | x4 F2 | x6 | x6 | x4 || %17
 x2 | x6 | x6 | C2 x4 | x6 | x6 | (G2 F2) x2 | x6 | x4 |] %26
V:3
 [F,A,]2 | [F,C]2 [F,C]2 [F,C]2 | [F,C]2 [F,C]2 [F,C]2 | [C,C]2 [C,C]2 [C,C]2 | [C,C]4 [C,A,]2 | %5
w: ~|~ ~ ~|~ ~ ~|~ ~ ~|~ ~|
 [C,B,]2 [C,B,]2 [C,B,]2 | [C,B,] [C,G,]3 [C,C]2 | [F,A,]6- | [F,A,]4 [F,A,]2 | %9
w: ~ ~ ~|~ ~ ~|~|* ~|
 [F,C]2 [F,C]2 [F,C]2 | [F,C]2 [F,F]2 [F,F]2 | [F,_E]2 [F,E]2 [A,,E]2 | [B,,D]4 [B,,D]2 | %13
w: ~ ~ ~|~ ~ ~|~ ~ ~|~ ~|
 [C,C]2 [C,B,]2 [C,A,]2 | [C,B,] [C,C]3 [C,B,]2 | [F,A,]6- | [F,A,]4 || z [F,A,] | %18
w: ~ ~ ~|~ ~ ~|~||“Be-|
 [F,A,]2 [F,C]>[F,B,] [F,A,]>[F,B,] | [C,A,]2 [C,G,]2 z2 | (E,G,) [C,C]2 [E,C]2 | %21
w: lieve ye that I am|a- ble,|a- * ble to|
 [F,C]2 [F,C]2 z [_E,C] | [D,D]2 [D,D]2 (3[C,D][C,D][C,D] | !fermata![=B,,G,]4 z2 | %24
w: do this? Ac-|cord- ing un- to your|faith|
 [C,G,]3 [C,G,] [C,B,]>[C,B,] | [F,A,]4 |] %26
w: be it un- to|you.”|
V:4
 x2 | x6 | x6 | x6 | x6 | x6 | x6 | x6 | x6 | x6 | x6 | x6 | x6 | x6 | x6 | x6 | x4 || x2 | x6 | %19
 x6 | C,2 x4 | x6 | x6 | x6 | x6 | x4 |] %26

